X:1
T:Title
%%score { 1 | 2 }
L:1/8
M:4/4
K:F
V:1 treble nm="Grand Piano"
V:2 bass 
V:1
 z4 z2[Q:1/4=86] [B,D][^CG] | [DF][^CE][DF][Fd] [Fd]2 FE | _Ecdc [DB]2 [FB][FA] | %3
 cBAG [DF]<[Fd] [Ec]>[EG] | [_Ec]6 [B,D][^CG] |[M:3/4] [DF][^CE] [DF][Fd] [Fd]2 |[M:1/4] FE | %7
[M:4/4] _EcGA B2 [FB][FA] | cBAG G<F A>c |[M:3/4] [DB]6 |[M:3/8] [Fd]3/2F3/2 |[M:4/4] _Ecdc F2 GA | %12
 [Dc][DB][Fd][DB] [DG]2 [DB][FB] | [_EB][EA]cA G<F _e>e |[M:9/8] d6 [Fd]3/2F3/2 | %15
[M:4/4] _Ecdc F2 Ac | [Dc][DB][Fd][DB] [DG]2 [DB][FB] | [_EB][EA]cA G<F A>c |[M:3/4] [DB]6 |] %19
V:2
 z4 z2 [B,,F,][B,,E,] | [B,,F,][B,,G,][B,,B,][B,,B,] [B,,B,]2 [F,B,D][G,B,^C] | %2
 [F,A,C][F,A,_E][F,A,F][F,A,E] [B,,B,]2 [D,B,][D,B,] | %3
 [_E,G,_E][E,G,E][E,G,E][E,B,E] [B,,B,]<[B,,B,] [C,B,]>[C,B,] | [F,A,]6 [B,,F,][B,,E,] | %5
[M:3/4] [B,,F,][B,,G,] [B,,B,][B,,B,] [B,,B,]2 |[M:1/4] [F,B,D][G,B,^C] | %7
[M:4/4] [F,A,C][F,A,_E][F,B,E][F,CE] [G,B,D]2 [D,B,][D,B,] | %8
 [_E,G,_E][E,G,E][E,G,E][E,B,E] [F,B,D]<[F,B,D] [F,CE]>[F,E] |[M:3/4] [B,,F,]6 | %10
[M:3/8] [B,,B,]3/2[D,B,]3/2 |[M:4/4] [C,F,A,][F,A,_E][F,A,E][F,A,E] [A,CE]2 [F,A,E][F,CE] | %12
 [B,,B,][B,,B,][B,,B,][B,,B,] [B,,B,]2 [B,,B,][D,B,] | %13
 [C,F,][C,F,][F,A,_E][F,CE] [F,B,E]<[F,A,E][K:treble] [F,CF]>[F,A,G] | %14
[M:9/8] [B,F]6[K:bass] [B,,B,]3/2[D,B,]3/2 | %15
[M:4/4] [C,F,A,][F,A,_E][F,A,E][F,A,E] [A,CE]2 [F,CE][F,A,E] | %16
 [B,,B,][B,,B,][B,,B,][B,,B,] [B,,B,]2 [B,,B,][D,B,] | %17
 [C,F,][C,F,][F,A,_E][F,CE] [F,B,E]<[F,A,E] [F,CE]>[F,E] |[M:3/4] [B,,F,]6 |] %19

